svg/free/filter-frames.svg

<svg version="1.1" xmlns="http://www.w3.org/2000/svg" width="24" height="24" viewBox="0 0 24 24">
<title>filter-frames</title>
<path d="M18 4.875h-12v11.068h12zM16.5 14.443h-9v-8.068h9z"></path>
<path d="M20.625 0.75h-17.25c-0.828 0.001-1.499 0.672-1.5 1.5v16.318c0.001 0.828 0.672 1.499 1.5 1.5h5.132l3.493 3.493 3.493-3.493h5.132c0.828-0.001 1.499-0.672 1.5-1.5v-16.318c-0.001-0.828-0.672-1.499-1.5-1.5h-0zM20.625 18.568h-5.754l-2.871 2.871-2.871-2.871h-5.754v-16.318h17.25z"></path>
</svg>

<svg xmlns="http://www.w3.org/2000/svg" width="24" height="24" viewBox="0 0 24 24"><path d="M18 4.875H6v11.068h12zm-1.5 9.568h-9V6.375h9z"/><path d="M20.625.75H3.375a1.502 1.502 0 00-1.5 1.5v16.318a1.502 1.502 0 001.5 1.5h5.132L12 23.561l3.493-3.493h5.132a1.502 1.502 0 001.5-1.5V2.25a1.502 1.502 0 00-1.5-1.5zm0 17.818h-5.754L12 21.439l-2.871-2.871H3.375V2.25h17.25z"/></svg>
